Obsidian/actions/22s/playlist-queue.svg

<svg height="22" viewBox="0 0 22 22" width="22" xmlns="http://www.w3.org/2000/svg"><path d="m1 1v2h14v-2zm8 4v2 6 2h5v1h2v-2h-1v-1-6-2zm-8 .0039062v2h6v-2zm10 1.9960938h2v6h-2zm-10 2.0039062v1.9999998h6v-1.9999998zm0 3.9960938v2h6v-2z" fill="#bebebe" transform="translate(3 3)"/></svg>

<svg xmlns="http://www.w3.org/2000/svg" width="22" height="22" viewBox="0 0 22 22">
 <defs>
  <style id="current-color-scheme" type="text/css">
   .ColorScheme-Text { color:#bebebe; } .ColorScheme-Highlight { color:#4285f4; }
  </style>
 </defs>
 <path style="fill:currentColor" class="ColorScheme-Text" d="M 1 1 L 1 3 L 15 3 L 15 1 L 1 1 z M 9 5 L 9 7 L 9 13 L 9 15 L 14 15 L 14 16 L 16 16 L 16 14 L 15 14 L 15 13 L 15 7 L 15 5 L 9 5 z M 1 5.0039062 L 1 7.0039062 L 7 7.0039062 L 7 5.0039062 L 1 5.0039062 z M 11 7 L 13 7 L 13 13 L 11 13 L 11 7 z M 1 9.0039062 L 1 11.003906 L 7 11.003906 L 7 9.0039062 L 1 9.0039062 z M 1 13 L 1 15 L 7 15 L 7 13 L 1 13 z" transform="translate(3 3)"/>
</svg>
